X:1
T:Because of His Love
T:Because of His Love
T:James L. Gilbert
T:O. G. Scott, 1904
T:Public Domain Courtesy of the Cyber Hymnal™
C:James L. Gilbert
Z:Public Domain
Z:Courtesy of the Cyber Hymnal™
%%score ( 1 2 ) ( 3 4 )
L:1/8
Q:1/4=86
M:6/8
K:Eb
V:1 treble 
V:2 treble 
V:3 bass 
V:4 bass 
V:1
 E | [EG]>[B,F][B,E] (ED)[B,E] | [DF]2 [DG] E2 [EG] | [GB]>[FA][EG] [GB]2 [EG] | %4
w: 1.~Be-|cause of His love * the|Sav- ior died, For|sin of the world was|
w: 2.~Be-|cause of His love, * O|bless- èd thought, Were|won- der- ful deeds of|
w: 3.~Be-|cause of His love, * His|blest com- mand, We’ll|send the glad word to|
 [FA]2 [EG] !fermata![DF]2 [DF] | (G>F)[EG] [DA]2 [DA] | (Be)[Fd] [Ec]2 [Ec] | %7
w: cru- ci- fied; With|His * own blood our|ran- * som paid, And|
w: mer- cy wrought; The|wind * and wave o-|beyed * His will— Hushed|
w: ev- ery land; His|name, * a- bove all|names * we’ll sing, And|
 [EF]2 [DF] [EB]2 [FA] | [DF]2 [B,E] [B,E]2 ||"^Refrain" [GB] | [Ge]>[Gd][Ac] [GB]2 [EG] | %11
w: for our souls de-|liv- ’rance made.|||
w: by His won- drous|“Peace— be still.”|Be-|cause of His love, His|
w: crown Him Sav- ior,|Priest and King.|||
 E2 [EF] [EG]2 [EG] | [Ec]>[Ec][Ec] [EB]2 [EB] | [DA]2 [EG] !fermata![DF]2 [DF] | %14
w: |||
w: sac- ri- fice! Be-|cause of His love! O|what a price! He|
w: |||
 [EG]>[EG][EG] [DB]2 [DB] | [Ee]2 [Fd] !fermata![Ec]2!f! [Ac] | [^Fe]>[Fd][Fc] [GB] z [EG] | %17
w: |||
w: suf- fered and died, was|cru- ci- fied, Be-|cause of His love, be-|
w: |||
 [DF]>[B,E][DF] [B,E]6 |] %18
w: |
w: cause of His love.|
w: |
V:2
 E | x3 B,2 x | x3 E2 x | x6 | x6 | E2 x4 | E2 x4 | x6 | x5 || x | x6 | E2 x4 | x6 | x6 | x6 | x6 | %16
 x6 | x9 |] %18
V:3
 [E,G,] | [E,B,]>[E,A,][E,G,] ([E,G,][F,A,])[E,G,] | [B,,A,]2 [B,,B,] [E,G,]2 [E,B,] | %3
 [E,E]>[E,E][E,B,] [E,E]2 [E,B,] | [D,B,]2 [E,B,] !fermata![B,,B,]2 [B,,B,] | %5
 [E,B,]2 [E,B,] [F,B,]2 [F,B,] | [G,B,]2 [G,=B,] [A,C]2 [A,C] | %7
 [A,C]2 [_A,B,] ([G,B,][G,,_D])[A,,C] | [B,,A,]2 [E,G,] [E,G,]2 || [E,E] | %10
 [E,B,]>[E,B,][E,C] [E,C]2 [G,_D] | [A,C]2 [A,_C] [E,B,]2 [E,B,] | A,>A,A, [G,B,]2 [G,B,] | %13
 [F,B,]2 [E,B,] !fermata![B,,B,]2 [B,,B,] | [E,B,]>[E,B,][E,B,] [F,B,]2 [A,B,] | %15
 [G,B,]2 [G,=B,] !fermata![A,C]2 [A,E] | [=A,C]>[A,C][A,E] [B,E] z [B,,B,] | %17
 [B,,A,]>[B,,G,][B,,A,] [E,G,]6 |] %18
V:4
 x | x6 | x6 | x6 | x6 | x6 | x6 | x6 | x5 || x | x6 | x6 | A,>A,A, x3 | x6 | x6 | x6 | x6 | x9 |] %18

